X: 14556
T: Gan Ainm
R: jig
M: 6/8
K: Gmajor
GBd gdB|GBd gdB|A2 d cBA|B/c/dB AGF|
GBd gdB|GBd gdc|B/c/dB AGA|AGF G3|
GBd gdB|GBd gdB|A2 d cBA|B/c/dB AGF|
G3 GDB|AGF GDB|dB/c/d BAG|AGF G3|
|:GBd g2 e|dBG AGE|dgd BAG|ABG AGF|
G2 g faf|edB AGE|DEG BGD|AFD G3:|
|:Bee efg|ede g3|ede gfg|efd B3|
e2f gab|agf gfe|dcB AGA|AGF G3:|

